X:1
T:Put me not to rebuke
T:William Croft [1678-1727]
T:The Bible, Psalm 38, verses 1 to 3
T:Put me not to rebuke
T:Copyright © 
T:Copyright © 
T:Copyright © 
T:Copyright © 
T:Copyright © 
T:Copyright © 
T:Copyright © 
T:Copyright © 
T:Copyright © 
T:Copyright © 
T:Copyright © 
C:William Croft [1678-1727]
Z:The Bible, Psalm 38, verses 1 to 3
Z:Copyright ©
%%score [ 1 2 3 4 ]
L:1/8
M:2/2
K:Eb
V:1 treble nm="Treble" snm="S."
V:2 treble nm="Contra- tenor" snm="A."
V:3 treble-8 transpose=-12 nm="Tenor" snm="T."
V:4 bass nm="Bass" snm="B."
V:1
 z16 | z16 | z8 c4 c4 | G4 G2 =A2 B4 B4 | B4 _A2 A2 (A2 G2) G4 | z16 | c4 c4 G4 G2 =A2 | B12 B4 | %8
w: ||Put me|not to re- buke, O|Lord in thine an- * ger.||Put me not to re-|buke, O|
 A12 A2 A2 | (A2 G2) G4 e4 e4 | c4 c2 c2 d4 (d4- | d4 e2 d2 c4 f2 e2) | d8- d2 (B2 e2 _d2 | %13
w: Lord in thine|an- * ger. Put me|not to re- buke, O|_ _ _ _ _ _|Lord, _ O _ _|
 c2 B2 A2 G2) (G2 F2) F2 F2 | G4 G4 =B2 c2 d2 B2 | c6 =Bc d8- | d2 c2 (cd) e2 =B4 B2 d2 | %17
w: _ _ _ _ Lord * in thine|an- ger, nei- ther chas- ten|me in thy hea-|* * vy, _ thy hea- vy dis-|
 (d2 c2) c4 G2 A2 B2 G2 | c4 F2 GA B6 AG | A6 GF G4 z4 | z8 B2 cd e4- | e2 _dc d4 c2 c2 c4- | %22
w: plea- * sure, nei- ther chas- ten|me, nei- ther _ chas- ten, _|chas- ten _ me,|nei- ther _ chas-|* ten _ me, nei- ther chas-|
 c2 =A2 B4 B2 A2 _A4- | A4 G3 F F4 F4 | =A2 A2 (AB) c2 (c2 =B2) z4 | =B2 B2 (Bc) d2 (d2 c2) z4 | %26
w: * ten me in thy hea-|* vy dis- plea- sure,|nei- ther chas- * ten me, _|nei- ther chas- * ten me _|
 z16 | z4 B2 _d2 A4 A2 A2 | A2 G2 c2 B2 B4 A4 | A4 (G2 F2) =E4 c2 _d2 | G4 G2 G2 A4 A4 | %31
w: |in thy hea- vy dis-|plea- sure, nei- ther chas- ten|me, O _ Lord in thy|hea- vy dis- plea- sure,|
 z4 d2 f2 =B4 B4 | c4 c2 =B2 d8- | d4 c2 c2 c2 c2 d2 c2 | =B4 B4 c4 c2 c2 | c4 =B2 B2 c4 c4 || %36
w: nei- ther chas- ten|me in thy hea-|* vy dis- plea- sure, nei- ther|chas- ten me in thy|hea- vy dis- plea- sure.|
[K:Ab][M:4/4] z8 | z8 | z8 | z8 | z8 | z8 | z8 | z8 | z8 | z8 | z8 | z8 | z8 | z8 | z8 | z8 | z8 | %53
w: |||||||||||||||||
 z8 | z8 | z8 | z8 ||[K:Cmin][M:2/2] z16 | z16 | z16 | z16 | z8 c8 | c4 c4 e4 c2 c2 | %63
w: ||||||||There|is no health in my|
 G4 c4 c2 c2 =B2 B2 | c4 _B8 B4 | =A4 A4 A2 G2 G4 | F2 A2 G2 F2 F2 E2 c4 | B2 _d2 c2 B2 B2 A2 =d4 | %68
w: flesh be- cause of thy dis-|plea- sure, of|thy dis- plea- sure, be-|cause of thy dis- plea- sure, be-|cause of thy dis- plea- sure, be-|
 c2 e2 d2 c2 c2 =B2 d4 | d4 d4 e4 c2 c2 | G4 e4 =B2 c2 d2 B2 | c4 _B8 A4 | G4 c4 c4 =B4- | %73
w: cause of thy dis- plea- sure, there|is no health in my|flesh be- cause of thy dis-|plea- sure, of|thy dis- plea- sure,|
 B4 _B4 c4 _B4- | B4 A4 G8 | z4 c4 B4 A4 | G4 G4 G2 G2 e4 | d4 c4 B4 d4 | c4 c8 B4 | B6 =AG G4 G4 | %80
w: _ of thy dis-|* plea- sure,|be- cause of|thy dis- plea- sure, be-|cause of thy dis-|plea- sure, of|thy dis- * plea- sure.|
 z16 | z16 | z8 z4 B2 B2 | A2 A2 G2 G2 F4 B4- | B4 A4 G4 e2 e2 | d2 d2 c2 c2 =B4 B2 B2 | %86
w: ||Nei- ther|is there a- ny rest in|_ my bones, nei- ther|is there a- ny rest in my|
 =B4 z4 z4 _B2 B2 | B2 A2 e2 dc d2 d2 e2 e2 | e6 d2 e4 e2 e2 | d2 d2 c2 c2 =B4 z4 | z8 z4 c2 c2 | %91
w: bones, is there|a- ny rest in my bones by rea- son|of my sin, nei- ther|is there a- ny rest,|nei- ther|
 d2 d2 =e2 e2 f4 f2 _e2 | d4 d2 c2 =B4 z4 | z16 | z8 z4 G4 | B2 =A2 =B2 B2 c8- | %96
w: is there a- ny rest, a- ny|rest in my bones||by|rea- son of my sin,|
 c4 c4 d2 c2 d2 d2 | e12 =e4 | f12 f4 | _e4 (d2 c2) c4 =B4 | c16 |] %101
w: _ by rea- son of my|sin, my|sin, by|rea- son _ of my|sin.|
V:2
 G4 G4 C4 C2 D2 | E12 (F2 E2) | D4 E2 D2 C6 D2 | (E8 =E8) | F4 F2 F2 (F2 _E2) E4 | %5
w: Put me not to re-|buke, O _|Lord in thine an- ger,|O _|Lord in thine an- * ger.|
 G4 G4 D4 D2 =E2 | F4 (_E2 D2) E4 E2 E2 | D4 D4 z8 | z16 | E4 E4 B,4 B,2 G,2 | C4 (A6 F2 B2 A2) | %11
w: Put me not to re-|buke O _ Lord in thine|an- ger.||Put me not to re-|buke, O _ _ _|
 G12 (F4- | F4 D4) G6 (E2 | A2 G2 F2 E2) E4 D2 D2 | E4 E4 D2 E2 F2 D2 | E2 FG (A6 G2) F2 F2 | %16
w: Lord, O|_ _ Lord, O|_ _ _ _ Lord in thine|an- ger, nei- ther chas- ten|me in thy hea- * vy, thy|
 ^F4 F2 F2 G8- | G8 G8 | F2 G2 A2 F2 G8 | z8 z4 C2 (DE) | F6 ED E8 | z4 A6 G2 G2 A2 | %22
w: hea- vy dis- plea-|* sure,|nei- ther chas- ten me,|nei- ther _|chas- ten _ me,|nei- ther chas- ten|
 F4 _G2 F2 =E2 E2 F4 | F4 =E2 E2 F4 F4 | D2 D2 (^FG) =A2 (A2 G2) z4 | G2 G2 G2 G2 G4 z4 | %26
w: me in thy hea- vy, thy|hea- vy dis- plea- sure,|nei- ther chas- * ten me, _|nei- ther chas- ten me|
 z4 F2 A2 D4 D2 D2 | E4 E8 D2 D2 | E6 D2 E4 E2 F2 | D4 _D2 D2 C2 C2 F4 | F4 =E2 E2 F4 F4 | %31
w: in thy hea- vy dis-|plea- sure, nei- ther|chas- ten me in thy|hea- vy dis- plea- sure, thy|hea- vy dis- plea- sure,|
 z4 A2 A2 G4 G4 | G8 F2 A2 G4- | G4 G2 G2 A4 A4- | A4 G2 F2 G8- | G4 G2 G2 G4 G4 || %36
w: nei- ther chas- ten|me in thy hea-|* vy dis- plea- sure,|_ in thy hea-|* vy dis- plea- sure.|
[K:Ab][M:4/4] G3 G GG G2 | A4- A (A/G/) (G/F/) (F/=E/) | =E2 EE F F3 | z F (F/G/) (A/G/) G4- | %40
w: For thine ar- rows stick|fast, _ stick * fast _ in _|me, for thine ar- rows|stick fast _ in _ me,|
 GE A4 G2 | A4 z4 | z4 z2 CA | (AG)GF F=E (EF) | G4 z4 | z2 EG (GF)FE | EE (=DE) DD F2- | %47
w: _ stick fast in|me,|and thy|hand _ press- eth, press- eth me _|sore,|and thy hand _ press- eth,|press- eth me _ sore, thy hand|
 F2 EA =D4 | C2 z2 z4 | z2 GB (BA) A2 | G3 (=E F3 =D | =E)E F3 F E2 | F2 z2 z4 | z2 GB (BA) A2 | %54
w: _ press- eth me|sore,|and thy hand, _ thy|hand press- * *|* eth, press- eth me|sore,|and thy hand, _ thy|
 G3 (=E F3 =D | =E)E F3 F E2 | F8 ||[K:Cmin][M:2/2] z16 | z8 G8 | G4 G4 A4 G2 G2 | %60
w: hand press- * *|* eth, press- eth me|sore.||There|is no health in my|
 C4 G4 G2 G2 ^F2 F2 | G4 G2 =F2 (E2 D2) (E2 F2) | G6 F2 E4 E4- | E4 E4 E4 D4 | F4 F2 F2 E6 D2 | %65
w: flesh be- cause of thy dis-|plea- sure, be- cause _ of _|thy dis- plea- sure,|_ there is no|health in my flesh be-|
 C2 E2 D2 C2 C2 =B,2 z4 | z16 | z8 z2 F2 F2 F2 | D4 D4 D4 D4 | z16 | G8 G4 G4 | A4 G2 G2 C4 F4 | %72
w: cause of thy dis- plea- sure,||be- cause of|thy dis- plea- sure.||There is no|health in my flesh be-|
 F4 E4 E4 (D2 E2) | F8 F6 D2 | =E4 F4 F4 (_E2 F2) | G2 G2 z4 z4 E4 | E4 D4 (E2 F2) G4 | %77
w: cause of thy dis- *|plea- sure, be-|cause of thy dis- *|plea- sure, be-|cause of thy _ dis-|
 ^F4 F4 z4 B4 | =A4 G4 ^F4 (G4- | G4 ^F4) G4 G4 | z16 | z4 =E2 E2 F2 F2 G2 G2 | A4 G2 G2 F4 G2 G2 | %83
w: plea- sure, be-|cause of thy dis-|* * plea- sure.||Nei- ther is there a- ny|rest in my bones, nei- ther|
 F2 F2 E2 E2 D4 F2 F2 | E4 z4 z4 G2 G2 | F2 F2 E2 D2 D4 D2 G2 | G4 G2 G2 F2 F2 F2 ED | %87
w: is there a- ny rest in my|bones, nei- ther|is there a- ny rest in my|bones, is there a- ny rest in my|
 E6 A2 A4 G4 | F6 F2 E4 G2 G2 | F2 F2 E2 D2 D4 G4- | G4 F4 E4 =E2 E2 | F2 F2 G2 G2 A4 A2 G2 | %92
w: bones, by rea- son|of my sin, nei- ther|is there a- ny rest in|_ my bones, nei- ther|is there a- ny rest, a- ny|
 F4 F2 E2 D4 D4 | E2 D2 =E2 E2 F8- | F2 D2 G4 E4 E4 | F4 F4 G2 F2 G2 G2 | A12 D4 | G8 E4 z4 | %98
w: rest in my bones by|rea- son of my sin,|_ of my sin, my|sin, by rea- son of my|sin, of|my sin,|
 z4 F4 F2 F2 G2 G2 | G4 A4 G8 | G16 |] %101
w: by rea- son of my|sin, of my|sin.|
V:3
 z16 | c4 c4 G4 G2 =A2 | B4 G4 _A4 A2 A2 | G8 G8 | (F2 G2) (A2 B2) (c3 d) e2 f2 | B4 c4 c4 =B2 B2 | %6
w: |Put me not to re-|buke, O Lord in thine|an- ger.|Put _ me _ not _ to re-|buke, O Lord in thine|
 c4 c4 z8 | B4 B4 F4 F2 G2 | (A2 B2) (c2 d2) e4 e2 f2 | B4 B6 B2 e4- | e2 (c2 f2 e2) d4 (B4- | %11
w: an- ger.|Put me not to re-|buke, _ O _ Lord in thine|an- ger, O Lord,|_ O _ _ Lord, O|
 B4 e6 d2 c4) | B12 (B4 | c8) B4 B2 B2 | B4 B4 z8 | z16 | z8 =B2 c2 d2 B2 | e4 e2 e2 e4 d2 d2 | %18
w: _ _ _ _|Lord, O|_ Lord in thine|an- ger,||nei- ther chas- ten|me in thy hea- vy dis-|
 c4 c4 B2 (cd) e4- | e2 dc d4 G2 =A=B c4- | c2 BA B4 B6 AG | A8 z4 =e2 e2 | f4 _d4 G4 =d2 d2 | %23
w: plea- sure, nei- ther _ chas-|* ten _ me, nei- ther _ chas-|* ten _ me, chas- ten _|me, nei- ther|chas- ten me in thy|
 c4 c3 c A4 A4 | =A2 A2 d2 d2 d4 z4 | d2 d2 (de) f2 (f2 e2) c2 e2 | A12 A2 A2 | G4 G2 G2 F4 F2 F2 | %28
w: hea- vy dis- plea- sure,|nei- ther chas- ten me,|nei- ther chas- * ten me _ in thy|hea- vy dis-|plea- sure, thy hea- vy dis-|
 E2 E2 z4 z8 | F2 F2 B2 A2 G4 A2 F2 | c4 c2 c2 c4 c4 | z4 f2 d2 d4 d4 | c4 e2 d2 d4 d2 f2 | %33
w: plea- sure,|nei- ther chas- ten me in thy|hea- vy dis- plea- sure,|nei- ther chas- ten|me in thy hea- vy, thy|
 e4 e2 e2 f4 f4- | f4 e2 d2 (e6 fe) | d4 d2 d2 e4 e4 ||[K:Ab][M:4/4] =e3 e ee e2 | %37
w: hea- vy dis- plea- sure,|_ in thy hea- * *|* vy dis- plea- sure.|For thine ar- rows stick|
 f3 f dd (d/c/) (c/B/) |{A} G4 z2 cc | d d3 z (e/d/) (d/c/) (c/B/) | B2 z e B3 B | c2 cf (fe)ed | %42
w: fast in me stick fast _ in _|_ for thine|ar rows stick _ fast _ in _|me, stick fast in|me, and thy hand _ press- eth,|
 dc cB (B A3) | z8 | z4 z2 cf | (f=e)c_e (e=d)dc | cc (=Bc) BB =d2- | d2 cc (c2 =B2) | %48
w: press- eth me _ sore, _||and thy|hand, _ and thy hand _ press- eth,|press- eth me _ sore, thy hand|_ press- eth me _|
 c2 z2 z2 cf | (f=e) e2 f(c _d2- | dB c3 =A B2- | B)G A3 A G2 | A2 z2 z2 cf | (f=e) e2 f(c _d2- | %54
w: sore, and thy|hand, _ thy hand press- *||* eth, press- eth me|sore, and thy|hand, _ thy hand press- *|
 dB c3 =A B2- | B)G A3 A G2 | A8 ||[K:Cmin][M:2/2] c8 c4 c4 | e4 c2 c2 G4 c4 | c2 c2 =B2 B2 c8 | %60
w: |* eth, press- eth me|sore.|There is no|health in my flesh be-|cause of thy dis- plea-|
 c4 _B4 =A4 A4 | =B4 (=A2 B2) c4 c2 d2 | e6 d2 c4 c4 | =B4 G4 G4 G4 | z16 | z8 z4 e4 | %66
w: sure, there is no|health, no _ health in thy|flesh be- cause of|thy dis- plea- sure,||be-|
 d2 f2 e2 d2 d2 c2 c4 | =E4 E4 F2 F2 A4 | =A2 c2 B2 A2 A2 G2 (G2 A2) | (=B2 G2) (=A2 B2) c4 c4 | %70
w: cause of thy dis- plea- sure, of|thy dis- plea- sure, be-|cause of thy dis- plea- sure, there _|is _ no _ health, no|
 c4 c2 c2 G8 | z16 | z8 G8 | G4 G4 A4 G2 G2 | C4 c4 c4 c4 | B4 A4 G2 G2 z4 | z8 z4 c4 | %77
w: health in my flesh.||There|is no health in my|flesh * * *|thy dis- plea- sure,|be-|
 B4 =A4 G4 B4 | e4 c2 B2 =A4 (B2 c2) | d6 d2 =B4 B4 | z16 | z4 c2 c2 d2 d2 =e2 e2 | %82
w: cause of thy dis-|plea- sure, be- cause of _|thy dis- plea- sure.||Nei- ther is there a- ny|
 f4 _e2 e2 d4 B4 | B8 B4 d2 d2 | e2 e2 f2 f2 B8 | A6 A2 G8 | d2 d2 c2 c2 c2 cB B4 | %87
w: rest in my bones, in|my bones, nei- ther|is there a- ny rest|in my bones,|is there a- ny rest in my bones,|
 c6 e2 f2 f2 e2 B2 | A6 A2 G4 B2 B2 | A2 A2 A2 A2 G4 =B2 B2 | c2 c2 d2 d2 e4 z4 | %91
w: in my bones by rea- son|of my sin, nei- ther|is there a- ny rest, nei- ther|is there a- ny rest,|
 z4 B2 B2 c2 c2 c2 c2 | A4 A3 G G4 z4 | z4 G4 A2 G2 =A2 A2 | B4 =B2 B2 c4 c4 | d4 d4 c2 c2 B2 B2 | %96
w: nei- ther is there a- ny|rest in my bones,|by rea- son of my|sin, of my sin, my|sin by rea- son of my|
 A12 =A4 | B2 =A2 =B2 B2 c8- | c4 c4 d2 c2 d2 d2 | e4 (f2 e2) d8 | e16 |] %101
w: sin, by|rea- son of my sin,|_ by rea- son of my|sin, of * my|sin.|
V:4
 z16 | z16 | z16 | z16 | F,4 F,4 C,4 C,2 D,2 | E,4 (E,4 F,4 G,4) | A,4 A,2 B,2 C4 C4 | %7
w: ||||Put me not to re-|buke, O _ _|Lord in thine an- ger.|
 G,4 G,4 D,4 D,2 =E,2 | F,4 F,4 C,4 C,2 D,2 | E,4 E,4 G,,8 | A,,4 A,,2 A,,2 B,,4 B,,4- | %11
w: Put me not to re-|buke, O Lord in thine|an- ger, O|Lord, in thine an- ger,|
 B,,2 (G,2 C2 B,2) A,8- | A,2 (F,2 B,2 A,2) G,8 | A,8 B,4 B,2 B,2 | E,4 E,4 z8 | z16 | %16
w: _ O _ _ Lord,|_ O _ _ Lord,|O Lord in thine|an- ger,||
 z8 G,2 =A,2 =B,2 G,2 | C8 B,4 B,4 | A,8 G,4 G,4 | F,4 F,4 E,2 F,G, A,4- | A,2 G,F, G,4 G,6 F,E, | %21
w: nei- ther chas- ten|me in thy|hea- vy dis-|plea- sure, nei- ther _ chas-|* ten _ me, chas- ten _|
 F,8 =E,4 C,4 | _D,4 B,,4 C,4 =B,,2 B,,2 | C,4 C,2 C,2 F,4 F,4 | ^F,2 F,2 D,2 F,2 G,4 z4 | %25
w: me, nei- ther|chas- ten me in thy|hea- vy dis- plea- sure,|nei- ther chas- ten me,|
 G,2 G,2 G,2 =B,2 C4 z4 | z16 | z16 | z4 E,2 G,2 C,6 D,2 | B,,12 A,,2 B,,2 | C,4 C,2 C,2 F,4 F,4 | %31
w: nei- ther chas- ten me,|||nei- ther chas- ten|me in thy|hea- vy dis- plea- sure,|
 z4 F,2 F,2 F,4 F,4 | E,4 E,2 G,2 =B,,4 B,,2 B,,2 | C,4 C,4 F,4 F,4 | G,16- | %35
w: nei- ther chas- ten|me in thy hea- vy dis-|plea- sure, in thy|hea-|
 G,4 G,2 G,2 C,4 C,4 ||[K:Ab][M:4/4] C3 C B,B, B,2 | A,2 F,2 B,B, (B,/A,/) (A,/G,/) | %38
w: * vy dis- plea- sure.|For thine ar- rows stick|fast in me stick fast _ in _|
 C,4 z2 =A,A, | B, B,3 z (C/B,/) (B,/A,/) (A,/G,/) | E,2 z C, E,3 E, | A,,2 z2 z2 F,B, | %42
w: me, for thine|ar- rows stick _ fast _ in _|me, stick fast in|me and thy|
 B,A,A,G, G,F, F,2 | C,2 C,A, (A,G,) (G,F,) | =E,2 G,B, B,A, A,2 | C2 C2 =B,2 CC | %46
w: hand _ press- eth, press- eth me|sore, and thy hand, _ thy _|hand press- eth, press- eth me|sore, thy hand press- eth,|
 ^F,F, F,2 G,2 z G, | =B,2 CF, G,4 | C,2 G,B, B,A,A,A, | A,G, G,2 F,4 | E,4 D,4 | %51
w: press- eth me sore, thy|hand press- eth me|sore, and thy hand _ press- eth,|press- eth me sore,|thy hand|
 C,3 B,, C,C, C,2 | F,2 G,B, (B,A,)A,A, | A,G, G,2 F,4 | E,4 D,4 | C,3 B,, C,C, C,2 | F,8 || %57
w: press- eth, press- eth me|sore, and thy hand _ press- eth,|press- eth me sore,|thy hand|press- eth, press- eth me|sore.|
[K:Cmin][M:2/2] z16 | z16 | z16 | z16 | z16 | z16 | G,8 G,4 G,4 | A,4 G,2 G,2 C,4 G,4 | %65
w: ||||||There is no|health in my flesh be-|
 G,2 G,2 ^F,2 F,2 G,4 G,2 G,2 | =B,,4 B,,4 C,2 C,2 A,4 | G,2 B,2 A,2 G,2 (G,2 F,2) F,4 | %68
w: cause of thy dis- plea- sure, of|thy dis- plea- sure, be-|cause of thy dis- plea- * sure,|
 ^F,4 F,4 G,8 | G,8 z8 | z16 | z16 | z16 | z16 | C,8 C,4 C,4 | E,4 C,2 C,2 G,,4 C,4 | %76
w: thy dis- plea-|sure.|||||There is no|health in my flesh, no|
 =B,,4 B,,2 B,,2 C,4 C,4 | D,4 D,4 E,4 B,,4 | C,4 C,2 C,2 D,8- | D,4 D,4 G,4 G,4 | %80
w: health in my flesh be-|cause of thy dis-|plea- sure, of thy|_ dis- plea- sure.|
 z4 G,2 G,2 =A,2 A,2 =B,2 B,2 | C4 C2 _B,2 A,4 G,2 G,2 | F,4 G,2 A,2 B,8- | B,8- B,4 B,,2 B,,2 | %84
w: Nei- ther is there a- ny|rest, a- ny rest in my|bones, in my bones,|_ _ nei- ther|
 C,2 C,2 D,2 D,2 E,8 | F,6 F,2 G,4 G,2 G,2 | F,2 F,2 E,2 E,E, D,4 D,4 | C,4 C,4 B,,8- | %88
w: is there a- ny rest|in my bones, is there|a- ny rest in my bones by|rea- son of|
 B,,4 B,,4 E,8 | F,4 F,4 G,4 G,2 G,2 | =A,2 A,2 =B,2 B,2 C4 C2 _B,2 | A,2 A,2 G,2 G,2 F,8- | %92
w: _ my sin,|of my sin, nei- ther|is there a- ny rest, nei- ther|is there a- ny rest|
 F,4 F,2 F,2 G,4 z4 | z16 | z16 | z4 D,4 E,2 D,2 =E,2 E,2 | F,12 ^F,4 | G,2 ^F,2 G,2 G,2 A,8- | %98
w: _ in my bones|||by rea- son of my|sin, by|rea- son of my sin,|
 A,4 =A,4 B,2 A,2 =B,2 B,2 | C4 F,4 G,8 | C,16 |] %101
w: _ by rea- son of my|sin, of my|sin.|

